X:40
C:Page 20
T:Willy Brew’d a Peck o’ Maut. MBe.40
S:Matthew Betham MS, Towcett Cumbria, 1815
O:England;Cumbria;Towcett
Z:VMP – Hugh Taylor, 2012
T:Miss Forbes’ Farewell to Banff,aka. MBe.40
T:Bill Halls #2,aka. MBe.40
M:C
L:1/8
Q:1/2=100
R:.Reel
K:G
GA|B2 Bd cBAG|B2 d2 e2 g2|d2 de dBAG|B2 A2 A2 GA|
BABd cBAG|B2 d2 e2 g2|d2 de dBAG|B2 G2 G2:|
|:ef|gega gfed|efge edcB|c2 ce cBAG|B2 A2 A2 “crots in MS”G/A/|
BABd cBAG|”^Qu’s in MS”B2 d2 e2 g2|”^NB3″d2 de cBAG|B2 G2 G2:|

